X:1
T:Hop Up, My Ladies
M:2/4
L:1/16
K:C
 G, G,| CC EE AA GG| E2 ED E2 G, G,| CC EE AA GG| E- D3 z2| G, G,|\
 CC EE AA GG| E2 ED E2C2| A2 A A2 AG G| E2D2 C4| C c2 c A2c2| z EE D E2 z2|\
 C c2 c B2c2| d2 dd d2 z2| G c2 c A2c2| z EE D E2G2| A2 GA-A AG G|\
 E2D2 C4|
